X: 1
T: Grand Old Flag    [G]
T: You're a Grand Old Flag
R: march
Z: 2007 John Chambers <jc@trillian.mit.edu>
M: 2/4
L: 1/8
K: G
dB | "G"G2 G2 | G2 ED | "D7"G A2 F | "G"G2 ED | G2 ED | G2 ED | "D7"F4- | F2 ||
zD | "D7"F2 "G"G2 | "D7"A2 FD | "G"G2 "D7"A2 | "G"B4 | "A7"A B2 G | A B2 G | "D"A4- | A2 |]
dB | "G"G2 G2 | G2 ED | "D7"G A2 F | "G"G2 F=F | "E"E2 ^GB | [e2E2] "E7"d2 | "Am"c4- | c2 ||
"D7"D2 | "G"G3 F | G2 B2 | "D7"A3 ^G | A2 DD | "C"E G2 F | "D7"G2 A2 | "G"G4- | G2 |]
